mobile/24/svg/camera-24.svg

<svg width="24" height="24" viewBox="0 0 24 24" fill="none" xmlns="http://www.w3.org/2000/svg">
<path fill-rule="evenodd" clip-rule="evenodd" d="M2 7.01709C2 5.63684 3.11975 4.51709 4.5 4.51709H14.25C15.6302 4.51709 16.75 5.63684 16.75 7.01709V7.27165L17.7323 6.28937C19.3075 4.71411 22 5.8296 22 8.05709V15.9441C22 18.1716 19.3075 19.2871 17.7323 17.7118L16.75 16.7295V16.9831C16.75 18.3633 15.6302 19.4831 14.25 19.4831H4.5C3.11975 19.4831 2 18.3633 2 16.9831V7.01709ZM4.5 6.26709C4.08625 6.26709 3.75 6.60334 3.75 7.01709V16.9831C3.75 17.3968 4.08625 17.7331 4.5 17.7331H14.25C14.6638 17.7331 15 17.3968 15 16.9831V14.6171C15 14.2632 15.2132 13.9441 15.5402 13.8087C15.8671 13.6733 16.2435 13.7481 16.4937 13.9984L18.9697 16.4744C19.4425 16.9471 20.25 16.6126 20.25 15.9441V8.05709C20.25 7.38858 19.4425 7.05407 18.9697 7.52681L16.4937 10.0028C16.2435 10.2531 15.8671 10.3279 15.5402 10.1925C15.2132 10.0571 15 9.73799 15 9.38409V7.01709C15 6.60334 14.6638 6.26709 14.25 6.26709H4.5Z" fill="black"/>
</svg>

<svg width="24" height="24" fill="none" xmlns="http://www.w3.org/2000/svg"><path fill-rule="evenodd" clip-rule="evenodd" d="M2 7.017a2.5 2.5 0 0 1 2.5-2.5h9.75a2.5 2.5 0 0 1 2.5 2.5v.255l.982-.983C19.308 4.714 22 5.83 22 8.057v7.887c0 2.228-2.692 3.343-4.268 1.768l-.982-.982v.253a2.5 2.5 0 0 1-2.5 2.5H4.5a2.5 2.5 0 0 1-2.5-2.5V7.017zm2.5-.75a.75.75 0 0 0-.75.75v9.966c0 .414.336.75.75.75h9.75a.75.75 0 0 0 .75-.75v-2.366a.875.875 0 0 1 1.494-.619l2.476 2.476a.75.75 0 0 0 1.28-.53V8.057a.75.75 0 0 0-1.28-.53l-2.476 2.476A.875.875 0 0 1 15 9.384V7.017a.75.75 0 0 0-.75-.75H4.5z" fill="#000"/></svg>
